src/apps/scalable/chatterino.svg

<svg width="64" height="64" version="1.1" viewBox="0 0 64 64" xmlns="http://www.w3.org/2000/svg" xmlns:xlink="http://www.w3.org/1999/xlink">
 <defs>
  <linearGradient id="bg" x2="0" y1="1" y2="47" gradientUnits="userSpaceOnUse">
   <stop stop-color="#42657f" offset="0"/>
   <stop stop-color="#223444" offset="1"/>
  </linearGradient>
  <filter id="filter9" x="-.11469" y="-.10205" width="1.2294" height="1.2041" color-interpolation-filters="sRGB">
   <feGaussianBlur stdDeviation="1.1055371"/>
  </filter>
  <filter id="filter10" x="-.078024" y="-.084472" width="1.156" height="1.1689" color-interpolation-filters="sRGB">
   <feGaussianBlur stdDeviation="0.55918035"/>
  </filter>
  <linearGradient id="linearGradient11" x1="21.599" x2="21.599" y1="22.943" y2="37.227" gradientUnits="userSpaceOnUse">
   <stop stop-color="#999999" offset="0"/>
   <stop stop-color="#c7c7c7" offset="1"/>
  </linearGradient>
  <linearGradient id="linearGradient13" x1="18.911" x2="18.911" y1="11" y2="29.018" gradientUnits="userSpaceOnUse">
   <stop stop-color="#9bd2f9" offset="0"/>
   <stop stop-color="#65baf6" offset="1"/>
  </linearGradient>
 </defs>
 <g transform="matrix(1.3043 0 0 1.3043 .69565 .69565)">
  <circle cx="24" cy="24" r="23" fill="url(#bg)"/>
  <path d="m26 12a13 13 0 0 0-13 13 13 13 0 0 0 2.5742 7.7402c0.23131 0.61738 0.42578 1.4116 0.42578 2.2598 0 1.464-1 2.4593-2 3 1.7036 0 4.126-0.72858 4.8086-2.1797a13 13 0 0 0 7.1914 2.1797 13 13 0 0 0 10.135-4.8652l-5.0176-5.0176a6 6 0 0 1-5.1172 2.8828 6 6 0 0 1-6-6 6 6 0 0 1 6-6 6 6 0 0 1 5.1191 2.8809l5.0098-5.0098a13 13 0 0 0-10.129-4.8711z" filter="url(#filter9)" opacity=".1" style="paint-order:normal"/>
  <path d="m23.99 15c-8.7929 0.19871-12 7-10.99 13.994 0.40786 0.97558 0.93323 1.8978 1.5645 2.7461 0.23131 0.61738 0.42578 1.4116 0.42578 2.2598 0 1.464-1 2.4593-2 3 1.7036 0 4.126-0.72858 4.8086-2.1797 2.1303 1.4186 4.632 2.1769 7.1914 2.1797 3.9411-2e-3 7.6686-1.7911 10.135-4.8652l-5.0176-5.0176c-1.0867 1.7872-3.0256 2.8795-5.1172 2.8828-3.3137 0-6-2.6863-6-6s2.6863-6 6-6c2.0919 2e-3 4.0316 1.0938 5.1191 2.8809 0.45488-1.8809-0.6713-5.8809-6.1191-5.8809z" fill="url(#linearGradient11)" style="paint-order:normal"/>
  <path d="m23.99 15c-6.5947 0.14903-10.047 4.0119-10.936 8.8848-0.03036 0.36247-0.05469 0.72734-0.05469 1.0977 0 1.625 0.0153 2.9405 0.03906 4.0918 0.26944 0.63225 0.60346 1.2315 0.96875 1.8125l2e-3 -0.88672c-0.0098-8.56 6.4902-12.018 10.99-12.018 0.21178 0.0012 0.41398 0.02432 0.61133 0.05859 1.8487 0.19463 3.5194 1.2317 4.498 2.8398 0.45488-1.8809-0.6713-5.8809-6.1191-5.8809z" filter="url(#filter10)" opacity=".1" style="paint-order:normal"/>
  <path d="m25 11c-7.1797 0-13 5.8203-13 13 7.69e-4 1.7229 0.34401 3.4285 1.0098 5.0176-0.0098-8.56 6.4902-12.018 10.99-12.018 3 0.0176 5.4893 2 6.1191 3.8809l5.0098-5.0098c-2.4637-3.0747-6.1889-4.8662-10.129-4.8711z" fill="url(#linearGradient13)" style="paint-order:normal"/>
 </g>
</svg>

<svg xmlns="http://www.w3.org/2000/svg" width="64" height="64"><defs><linearGradient id="a" x2="0" y1="1" y2="47" gradientUnits="userSpaceOnUse"><stop offset="0" stop-color="#42657f"/><stop offset="1" stop-color="#223444"/></linearGradient><linearGradient id="c" x1="21.599" x2="21.599" y1="22.943" y2="37.227" gradientUnits="userSpaceOnUse"><stop offset="0" stop-color="#999"/><stop offset="1" stop-color="#c7c7c7"/></linearGradient><linearGradient id="e" x1="18.911" x2="18.911" y1="11" y2="29.018" gradientUnits="userSpaceOnUse"><stop offset="0" stop-color="#9bd2f9"/><stop offset="1" stop-color="#65baf6"/></linearGradient><filter id="b" width="1.229" height="1.204" x="-.115" y="-.102" color-interpolation-filters="sRGB"><feGaussianBlur stdDeviation="1.106"/></filter><filter id="d" width="1.156" height="1.169" x="-.078" y="-.084" color-interpolation-filters="sRGB"><feGaussianBlur stdDeviation=".559"/></filter></defs><g transform="translate(.696 .696) scale(1.3043)"><circle cx="24" cy="24" r="23" fill="url(#a)"/><path d="M26 12a13 13 0 0 0-13 13 13 13 0 0 0 2.574 7.74c.232.618.426 1.412.426 2.26 0 1.464-1 2.46-2 3 1.704 0 4.126-.729 4.809-2.18A13 13 0 0 0 26 38a13 13 0 0 0 10.135-4.865l-5.018-5.018A6 6 0 0 1 26 31a6 6 0 0 1-6-6 6 6 0 0 1 6-6 6 6 0 0 1 5.12 2.88l5.01-5.009A13 13 0 0 0 26 12z" filter="url(#b)" opacity=".1" style="paint-order:normal"/><path fill="url(#c)" d="M23.99 15c-8.793.199-12 7-10.99 13.994.408.976.933 1.898 1.564 2.746.232.617.426 1.412.426 2.26 0 1.464-1 2.46-2 3 1.704 0 4.126-.729 4.809-2.18A13 13 0 0 0 24.99 37a13.002 13.002 0 0 0 10.135-4.865l-5.017-5.018A6 6 0 0 1 24.99 30a6 6 0 0 1 0-12 6 6 0 0 1 5.12 2.88C30.564 19 29.438 15 23.99 15z" style="paint-order:normal"/><path d="M23.99 15c-6.595.149-10.047 4.012-10.936 8.885-.03.362-.055.727-.055 1.097 0 1.625.016 2.941.04 4.092.269.633.603 1.232.968 1.813L14.01 30C14 21.44 20.5 17.982 25 17.982c.212.001.414.024.611.059a5.994 5.994 0 0 1 4.498 2.84C30.563 19 29.438 15 23.99 15z" filter="url(#d)" opacity=".1" style="paint-order:normal"/><path fill="url(#e)" d="M25 11c-7.18 0-13 5.82-13 13a13 13 0 0 0 1.01 5.018C13 20.458 19.5 17 24 17c3 .017 5.49 2 6.119 3.88l5.01-5.01A13 13 0 0 0 24.999 11z" style="paint-order:normal"/></g></svg>
